X: 11841
Q: "Very slow."
M: 3/4
L: 1/8
K: G
(D>E) |\
e3d(Be) | d3B(Ad) | B3A({c}BA/G/) | G4 :|\
|: (ga) | {ga}b4(ag) | {f2}e4(d/f/g/a/) | b3a(gb) |\
(b2a2)(ge) |
(ed)(cB) (e/f/g) | {g2}f4(ef/g/) | (ed)(cB)(AG) |\
{Bc}d4(D>E) | G4(ge) | d3(cB)A | G3(ABd) | e4(de/g/) |\
e3d(Be) | d3B(Ad) | B3A(BA/G/) | G4 :|


